static/img/menus/ico-restorescreen.svg

<svg width="16" height="16" viewBox="0 0 16 16" fill="none" xmlns="http://www.w3.org/2000/svg">
<g clip-path="url(#clip0_372_76)">
<path d="M11.2308 1.53857H10.1539V4.33855C10.139 4.54982 10.1715 4.76174 10.249 4.95882C10.3266 5.15591 10.4471 5.33319 10.602 5.47769C10.7568 5.6222 10.942 5.73028 11.1439 5.79404C11.3459 5.85781 11.5595 5.87564 11.7693 5.84624H14.4616V4.76932H11.7693C11.701 4.77857 11.6315 4.77284 11.5656 4.75253C11.4997 4.73222 11.4391 4.69782 11.3878 4.6517C11.3366 4.60559 11.296 4.54888 11.2689 4.4855C11.2418 4.42213 11.2288 4.35361 11.2308 4.28471V1.53857ZM11.7693 11.2308H14.4616V10.1539H11.7693C11.5498 10.1226 11.3261 10.1428 11.1159 10.2129C10.9056 10.283 10.7146 10.4011 10.5578 10.5578C10.4011 10.7146 10.283 10.9056 10.2129 11.1159C10.1428 11.3261 10.1226 11.5498 10.1539 11.7693V14.4616H11.2308V11.7693C11.2204 11.6961 11.2271 11.6216 11.2505 11.5515C11.2738 11.4814 11.3132 11.4177 11.3655 11.3655C11.4177 11.3132 11.4814 11.2738 11.5515 11.2505C11.6216 11.2271 11.6961 11.2204 11.7693 11.2308ZM5.84624 1.53857H4.76932V4.33855C4.76781 4.39934 4.75382 4.45916 4.72823 4.51431C4.70264 4.56946 4.66598 4.61876 4.62054 4.65915C4.5751 4.69955 4.52184 4.73017 4.46407 4.74912C4.4063 4.76807 4.34525 4.77495 4.28471 4.76932H1.53857V5.84624H4.33855C4.5392 5.85627 4.73971 5.82414 4.92718 5.75192C5.11464 5.6797 5.28489 5.56899 5.42694 5.42694C5.56899 5.28489 5.6797 5.11464 5.75192 4.92718C5.82414 4.73971 5.85627 4.5392 5.84624 4.33855V1.53857ZM1.53857 11.2308H4.33855C4.40333 11.235 4.46653 11.2526 4.5241 11.2826C4.58167 11.3125 4.63236 11.3542 4.6729 11.4049C4.71345 11.4556 4.74297 11.5141 4.75957 11.5769C4.77618 11.6396 4.7795 11.7052 4.76932 11.7693V14.4616H5.84624V11.7693C5.87564 11.5595 5.85781 11.3459 5.79404 11.1439C5.73028 10.942 5.6222 10.7568 5.47769 10.602C5.33318 10.4471 5.15591 10.3266 4.95882 10.249C4.76174 10.1715 4.54982 10.139 4.33855 10.1539H1.53857V11.2308Z" fill="currentColor"/>
<path d="M4.7692 1.53846V4.33844C4.74465 4.61076 4.58311 4.75434 4.28459 4.7692H1.53846V5.84612H4.33844C5.28706 5.78961 5.78961 5.28706 5.84612 4.33844V1.53846H4.7692ZM10.1538 1.53846V4.33844C10.2001 5.34255 10.7385 5.84512 11.7692 5.84612H14.4614V4.7692H11.7692C11.4354 4.76998 11.2561 4.60867 11.2307 4.28459V1.53846H10.1538ZM1.53846 10.1538V11.2307H4.33844C4.62662 11.2659 4.77021 11.4454 4.7692 11.7692V14.4614H5.84612V11.7692C5.84512 10.7385 5.34255 10.2001 4.33844 10.1538H1.53846ZM11.7692 10.1538C10.6922 10.1538 10.1538 10.6922 10.1538 11.7692V14.4614H11.2307V11.7692C11.2307 11.4102 11.4102 11.2307 11.7692 11.2307H14.4614V10.1538H11.7692ZM4.23075 1H6.38458L6.38363 4.37045C6.31065 5.59568 5.59568 6.31065 4.37045 6.38363L4.33844 6.38458H1V4.23075H4.23075V1ZM9.61532 1H11.7692V4.23075H14.9999V6.38458H11.7692C10.4597 6.38331 9.67504 5.64656 9.6159 4.36323L9.61532 4.33844V1ZM1 9.61532L4.36323 9.6159C5.64656 9.67504 6.38331 10.4597 6.38458 11.7686V14.9999H4.23075V11.7692H1V9.61532ZM11.7692 9.61532H14.9999V11.7692H11.7692V14.9999H9.61532V11.7692C9.61532 10.4004 10.4004 9.61532 11.7692 9.61532Z" fill="currentColor" fill-opacity="0.25"/>
</g>
<defs>
<clipPath id="clip0_372_76">
<rect width="16" height="16" fill="currentColor"/>
</clipPath>
</defs>
</svg>

<svg xmlns="http://www.w3.org/2000/svg" width="16" height="16" fill="none" viewBox="0 0 16 16"><g fill="currentColor" clip-path="url(#a)"><path d="M11.23 1.539h-1.076v2.8a1.422 1.422 0 0 0 1.615 1.507h2.693V4.77h-2.693a.475.475 0 0 1-.538-.484zm.54 9.692h2.692v-1.077h-2.693a1.428 1.428 0 0 0-1.615 1.615v2.693h1.077v-2.693a.476.476 0 0 1 .538-.538M5.845 1.539H4.77v2.8a.444.444 0 0 1-.484.43H1.539v1.077h2.8A1.44 1.44 0 0 0 5.846 4.34zM1.54 11.23h2.8a.467.467 0 0 1 .43.538v2.693h1.077v-2.693a1.422 1.422 0 0 0-1.507-1.615h-2.8z"/><path fill-opacity=".25" d="M4.77 1.538v2.8q-.038.409-.485.431H1.538v1.077h2.8q1.425-.084 1.508-1.508v-2.8zm5.384 0v2.8q.07 1.507 1.615 1.508h2.692V4.77H11.77q-.5.002-.538-.484V1.538zm-8.616 8.616v1.077h2.8q.433.052.431.538v2.692h1.077V11.77q0-1.545-1.508-1.615zm10.231 0q-1.615 0-1.615 1.615v2.692h1.077V11.77q0-.538.538-.538h2.692v-1.077zM4.231 1h2.154l-.001 3.37C6.31 5.596 5.596 6.31 4.37 6.384H1V4.232h3.23zm5.384 0h2.154v3.23H15v2.155h-3.23c-1.31-.002-2.094-.738-2.153-2.022V1M1 9.615h3.363c1.284.06 2.02.845 2.022 2.154v3.23H4.23v-3.23H1zm10.77 0H15v2.154h-3.23V15H9.614v-3.23c0-1.369.785-2.154 2.154-2.154"/></g><defs><clipPath id="a"><path fill="currentColor" d="M0 0h16v16H0z"/></clipPath></defs></svg>
